symbols/web/av_timer/materialsymbolsrounded/av_timer_grad200_20px.svg

<svg xmlns="http://www.w3.org/2000/svg" height="20" width="20"><path d="M10 14.875q-.375 0-.656-.281-.282-.282-.282-.656 0-.376.282-.657Q9.625 13 10 13t.656.281q.282.281.282.657 0 .374-.282.656-.281.281-.656.281Zm0 3.167q-1.667 0-3.135-.636-1.469-.635-2.553-1.718-1.083-1.084-1.718-2.553-.636-1.468-.636-3.114t.667-3.156q.667-1.511 1.771-2.615.333-.333.812-.302.48.031.834.385l4.541 4.521q.146.146.229.323.084.177.084.365 0 .187-.084.364-.083.177-.229.323-.312.333-.698.333-.385 0-.697-.312L5.438 6.5q-.626.75-.907 1.615-.281.864-.281 1.906 0 2.458 1.646 4.094Q7.542 15.75 10 15.75t4.104-1.635q1.646-1.636 1.646-4.094 0-2.063-1.323-3.688t-3.469-2v.646q0 .375-.291.667-.292.292-.667.292-.375 0-.667-.292-.291-.292-.291-.667V3.083q0-.479.323-.802.323-.323.802-.323 1.625.021 3.062.657 1.438.635 2.511 1.729 1.072 1.094 1.687 2.552t.615 3.125q0 1.646-.636 3.114-.635 1.469-1.718 2.553-1.084 1.083-2.542 1.718-1.458.636-3.146.636Zm3.938-7.104q-.376 0-.657-.282Q13 10.375 13 10t.281-.656q.281-.282.657-.282.374 0 .656.282.281.281.281.656t-.281.656q-.282.282-.656.282Zm-7.876 0q-.374 0-.656-.282-.281-.281-.281-.656t.281-.656q.282-.282.656-.282.376 0 .657.282Q7 9.625 7 10t-.281.656q-.281.282-.657.282Z"/></svg>

<svg xmlns="http://www.w3.org/2000/svg" height="20" width="20"><path d="M10 14.875Q9.625 14.875 9.344 14.594Q9.062 14.312 9.062 13.938Q9.062 13.562 9.344 13.281Q9.625 13 10 13Q10.375 13 10.656 13.281Q10.938 13.562 10.938 13.938Q10.938 14.312 10.656 14.594Q10.375 14.875 10 14.875ZM10 18.042Q8.333 18.042 6.865 17.406Q5.396 16.771 4.312 15.688Q3.229 14.604 2.594 13.135Q1.958 11.667 1.958 10.021Q1.958 8.375 2.625 6.865Q3.292 5.354 4.396 4.25Q4.729 3.917 5.208 3.948Q5.688 3.979 6.042 4.333L10.583 8.854Q10.729 9 10.812 9.177Q10.896 9.354 10.896 9.542Q10.896 9.729 10.812 9.906Q10.729 10.083 10.583 10.229Q10.271 10.562 9.885 10.562Q9.5 10.562 9.188 10.25L5.438 6.5Q4.812 7.25 4.531 8.115Q4.25 8.979 4.25 10.021Q4.25 12.479 5.896 14.115Q7.542 15.75 10 15.75Q12.458 15.75 14.104 14.115Q15.75 12.479 15.75 10.021Q15.75 7.958 14.427 6.333Q13.104 4.708 10.958 4.333V4.979Q10.958 5.354 10.667 5.646Q10.375 5.938 10 5.938Q9.625 5.938 9.333 5.646Q9.042 5.354 9.042 4.979V3.083Q9.042 2.604 9.365 2.281Q9.688 1.958 10.167 1.958Q11.792 1.979 13.229 2.615Q14.667 3.25 15.74 4.344Q16.812 5.438 17.427 6.896Q18.042 8.354 18.042 10.021Q18.042 11.667 17.406 13.135Q16.771 14.604 15.688 15.688Q14.604 16.771 13.146 17.406Q11.688 18.042 10 18.042ZM13.938 10.938Q13.562 10.938 13.281 10.656Q13 10.375 13 10Q13 9.625 13.281 9.344Q13.562 9.062 13.938 9.062Q14.312 9.062 14.594 9.344Q14.875 9.625 14.875 10Q14.875 10.375 14.594 10.656Q14.312 10.938 13.938 10.938ZM6.062 10.938Q5.688 10.938 5.406 10.656Q5.125 10.375 5.125 10Q5.125 9.625 5.406 9.344Q5.688 9.062 6.062 9.062Q6.438 9.062 6.719 9.344Q7 9.625 7 10Q7 10.375 6.719 10.656Q6.438 10.938 6.062 10.938Z"/></svg>
